assets/src/images/icons/ic_tasks_neon.svg

<svg width="94" height="106" viewBox="0 0 94 106" fill="none" xmlns="http://www.w3.org/2000/svg">
<g filter="url(#filter0_d)">
<path fill-rule="evenodd" clip-rule="evenodd" d="M62.7309 33.5385H56.5385V32.6539C56.5385 32.1654 56.1424 31.7693 55.6539 31.7693H50.345C49.5155 30.6666 48.2033 30 46.8077 30C45.4122 30 44.0999 30.6666 43.2705 31.7692H37.9615C37.473 31.7692 37.0769 32.1653 37.0769 32.6538V33.5384H30.8846C30.3961 33.5384 30 33.9345 30 34.423V75.1154C30 75.6039 30.3961 76 30.8846 76H62.7309C63.2193 76 63.6155 75.6039 63.6155 75.1154V34.4231C63.6155 33.9346 63.2193 33.5385 62.7309 33.5385ZM38.8462 33.5385H43.7439C44.0596 33.5385 44.3514 33.3702 44.5095 33.0969C44.9835 32.278 45.864 31.7693 46.8077 31.7693C47.7515 31.7693 48.6321 32.2781 49.1059 33.0969C49.2639 33.3702 49.5558 33.5385 49.8715 33.5385H54.7693V37.077H38.8462V33.5385ZM61.8462 70.6924H57.4232C56.9347 70.6924 56.5385 71.0885 56.5385 71.577C56.5385 72.0655 56.9347 72.4616 57.4232 72.4616H61.8463V74.2308H31.7692V35.3077H37.0769V37.9615C37.0769 38.45 37.473 38.8461 37.9615 38.8461H55.6539C56.1423 38.8461 56.5385 38.45 56.5385 37.9615V35.3077H61.8462V70.6924ZM42.0596 41.6995C41.6812 41.3905 41.1239 41.4466 40.8149 41.8251L37.1836 46.2716L35.1223 43.6121C34.823 43.2259 34.2673 43.1554 33.8812 43.4547C33.495 43.754 33.4246 44.3097 33.7239 44.6959L36.4662 48.2344C36.6313 48.4474 36.8845 48.5735 37.154 48.5769H37.1653C37.4307 48.5769 37.6824 48.4577 37.8505 48.2519L42.1851 42.9442C42.4941 42.5658 42.438 42.0085 42.0596 41.6995ZM45.0385 42.3846H59.1923C59.6808 42.3846 60.0769 42.7807 60.0769 43.2692C60.0769 43.7577 59.6808 44.1538 59.1923 44.1538H45.0385C44.55 44.1538 44.1539 43.7577 44.1539 43.2692C44.1539 42.7807 44.55 42.3846 45.0385 42.3846ZM50.3462 45.9231H45.0385C44.55 45.9231 44.1539 46.3192 44.1539 46.8077C44.1539 47.2962 44.55 47.6923 45.0385 47.6923H50.3462C50.8347 47.6923 51.2308 47.2962 51.2308 46.8077C51.2308 46.3192 50.8347 45.9231 50.3462 45.9231ZM40.8149 52.4405C41.1239 52.0621 41.6812 52.0059 42.0596 52.3149C42.438 52.6239 42.4941 53.1812 42.1851 53.5596L37.8505 58.8673C37.6824 59.0731 37.4307 59.1924 37.1653 59.1924H37.154C36.8845 59.1889 36.6313 59.0628 36.4662 58.8498L33.7239 55.3113C33.4246 54.9251 33.495 54.3694 33.8812 54.0702C34.2673 53.7708 34.823 53.8413 35.1223 54.2275L37.1836 56.887L40.8149 52.4405ZM59.1923 53H45.0385C44.55 53 44.1539 53.3962 44.1539 53.8846C44.1539 54.3731 44.55 54.7692 45.0385 54.7692H59.1923C59.6808 54.7692 60.0769 54.3731 60.0769 53.8846C60.0769 53.3962 59.6808 53 59.1923 53ZM45.0385 56.5385H50.3462C50.8347 56.5385 51.2308 56.9347 51.2308 57.4231C51.2308 57.9116 50.8347 58.3078 50.3462 58.3078H45.0385C44.55 58.3078 44.1539 57.9116 44.1539 57.4231C44.1539 56.9347 44.55 56.5385 45.0385 56.5385ZM42.0596 62.9303C41.6812 62.6213 41.1239 62.6775 40.8149 63.0559L37.1836 67.5025L35.1223 64.8429C34.823 64.4568 34.2673 64.3862 33.8812 64.6856C33.495 64.9849 33.4246 65.5405 33.7239 65.9267L36.4662 69.4652C36.6313 69.6782 36.8845 69.8044 37.154 69.8078H37.1653C37.4307 69.8078 37.6824 69.6886 37.8505 69.4827L42.1851 64.175C42.4941 63.7966 42.438 63.2393 42.0596 62.9303ZM45.0385 63.6155H59.1923C59.6808 63.6155 60.0769 64.0116 60.0769 64.5001C60.0769 64.9886 59.6808 65.3847 59.1923 65.3847H45.0385C44.55 65.3847 44.1539 64.9886 44.1539 64.5001C44.1539 64.0116 44.55 63.6155 45.0385 63.6155ZM50.3462 67.1539H45.0385C44.55 67.1539 44.1539 67.55 44.1539 68.0385C44.1539 68.527 44.55 68.9231 45.0385 68.9231H50.3462C50.8347 68.9231 51.2308 68.527 51.2308 68.0385C51.2308 67.5501 50.8347 67.1539 50.3462 67.1539ZM54.7693 70.6924C55.0019 70.6924 55.2302 70.787 55.3946 70.9516C55.5592 71.1161 55.6539 71.3444 55.6539 71.577C55.6539 71.8096 55.5592 72.0379 55.3946 72.2023C55.2302 72.3669 55.002 72.4616 54.7693 72.4616C54.5367 72.4616 54.3084 72.3668 54.1439 72.2023C53.9793 72.0379 53.8847 71.8096 53.8847 71.577C53.8847 71.3444 53.9794 71.1162 54.1439 70.9516C54.3084 70.787 54.5366 70.6924 54.7693 70.6924Z" fill="#0EF5FF"/>
</g>
<defs>
<filter id="filter0_d" x="0" y="0" width="93.6155" height="106" filterUnits="userSpaceOnUse" color-interpolation-filters="sRGB">
<feFlood flood-opacity="0" result="BackgroundImageFix"/>
<feColorMatrix in="SourceAlpha" type="matrix" values="0 0 0 0 0 0 0 0 0 0 0 0 0 0 0 0 0 0 127 0"/>
<feOffset/>
<feGaussianBlur stdDeviation="15"/>
<feColorMatrix type="matrix" values="0 0 0 0 0.054902 0 0 0 0 0.960784 0 0 0 0 1 0 0 0 0.8 0"/>
<feBlend mode="normal" in2="BackgroundImageFix" result="effect1_dropShadow"/>
<feBlend mode="normal" in="SourceGraphic" in2="effect1_dropShadow" result="shape"/>
</filter>
</defs>
</svg>

<svg width="94" height="106" viewBox="0 0 94 106" fill="none" xmlns="http://www.w3.org/2000/svg"><g filter="url(#filter0_d)"><path fill-rule="evenodd" clip-rule="evenodd" d="M62.73 33.538h-6.19v-.884a.885.885 0 00-.885-.885h-5.309A4.44 4.44 0 0046.808 30a4.44 4.44 0 00-3.538 1.77h-5.309a.885.885 0 00-.884.884v.884h-6.192a.885.885 0 00-.885.885v40.692c0 .489.396.885.885.885H62.73a.885.885 0 00.884-.885V34.423a.885.885 0 00-.884-.885zm-23.884 0h4.898a.885.885 0 00.766-.441 2.664 2.664 0 012.298-1.328c.944 0 1.824.51 2.298 1.328.158.273.45.441.765.441h4.898v3.539H38.846v-3.538zm23 37.154h-4.423a.885.885 0 000 1.77h4.423v1.769H31.77V35.308h5.308v2.654c0 .488.396.884.885.884h17.692a.885.885 0 00.884-.884v-2.654h5.308v35.384zM42.06 41.7a.885.885 0 00-1.245.125l-3.631 4.447-2.062-2.66a.885.885 0 10-1.398 1.084l2.742 3.538c.165.213.419.34.688.343h.011c.266 0 .517-.12.685-.325l4.335-5.308a.885.885 0 00-.125-1.245zm2.978.685h14.154a.885.885 0 010 1.769H45.038a.885.885 0 010-1.77zm5.308 3.538H45.04a.885.885 0 000 1.77h5.307a.885.885 0 000-1.77zm-9.531 6.517a.885.885 0 111.37 1.12l-4.335 5.307a.885.885 0 01-.685.325h-.011a.885.885 0 01-.688-.342l-2.742-3.539a.885.885 0 111.398-1.084l2.062 2.66 3.63-4.447zm18.377.56H45.038a.885.885 0 000 1.77h14.154a.885.885 0 000-1.77zm-14.154 3.538h5.308a.885.885 0 010 1.77H45.04a.885.885 0 010-1.77zM42.06 62.93a.885.885 0 00-1.245.126l-3.631 4.447-2.062-2.66a.885.885 0 10-1.398 1.084l2.742 3.538c.165.213.419.34.688.343h.011c.266 0 .517-.12.685-.325l4.335-5.308a.885.885 0 00-.125-1.245zm2.978.685h14.154a.885.885 0 010 1.77H45.038a.885.885 0 010-1.77zm5.308 3.539H45.04a.885.885 0 000 1.77h5.307a.885.885 0 000-1.77zm4.423 3.538a.89.89 0 01.626.26.89.89 0 01.259.625.89.89 0 01-.26.625.89.89 0 01-.625.26.892.892 0 01-.625-.26.89.89 0 01-.26-.625.89.89 0 01.26-.625.89.89 0 01.625-.26z" fill="#0EF5FF"/></g><defs><filter id="filter0_d" x="0" y="0" width="93.615" height="106" filterUnits="userSpaceOnUse" color-interpolation-filters="sRGB"><feFlood flood-opacity="0" result="BackgroundImageFix"/><feColorMatrix in="SourceAlpha" values="0 0 0 0 0 0 0 0 0 0 0 0 0 0 0 0 0 0 127 0"/><feOffset/><feGaussianBlur stdDeviation="15"/><feColorMatrix values="0 0 0 0 0.054902 0 0 0 0 0.960784 0 0 0 0 1 0 0 0 0.8 0"/><feBlend in2="BackgroundImageFix" result="effect1_dropShadow"/><feBlend in="SourceGraphic" in2="effect1_dropShadow" result="shape"/></filter></defs></svg>
